docs/.gitbook/assets/icon-rotate-anti-clockwise-16@dark.svg

<svg width="32" height="32" viewBox="0 0 16 16" fill="none" xmlns="http://www.w3.org/2000/svg">
<rect x="0" y="0" width="16" height="16" fill="#181c1f"/>
<path fill-rule="evenodd" clip-rule="evenodd" d="M8.80747 1.24828C9.08456 1.55617 9.05961 2.03038 8.75172 2.30748L7.70447 3.25001H8C11.2648 3.25001 14 5.63904 14 9.00001C14 12.3137 11.3137 15 8 15C4.68629 15 2 12.3137 2 9.00001C2 8.58579 2.33579 8.25001 2.75 8.25001C3.16421 8.25001 3.5 8.58579 3.5 9.00001C3.5 11.4853 5.51472 13.5 8 13.5C10.4853 13.5 12.5 11.4853 12.5 9.00001C12.5 6.56198 10.5342 4.75001 8 4.75001H7.70447L8.75172 5.69254C9.05961 5.96963 9.08456 6.44385 8.80747 6.75173C8.53038 7.05961 8.05616 7.08457 7.74828 6.80748L5.24828 4.55748C5.09024 4.41525 5 4.21262 5 4.00001C5 3.78739 5.09024 3.58477 5.24828 3.44254L7.74828 1.19254C8.05616 0.915442 8.53038 0.9404 8.80747 1.24828Z" fill="#fff"/>
</svg>

<svg xmlns="http://www.w3.org/2000/svg" width="32" height="32" fill="none" viewBox="0 0 16 16"><path fill="#181c1f" d="M0 0h16v16H0z"/><path fill="#fff" fill-rule="evenodd" d="M8.807 1.248a.75.75 0 0 1-.055 1.06l-1.048.942H8c3.265 0 6 2.389 6 5.75A6 6 0 0 1 2 9a.75.75 0 1 1 1.5 0 4.5 4.5 0 1 0 9 0c0-2.438-1.966-4.25-4.5-4.25h-.296l1.048.943a.75.75 0 1 1-1.004 1.114l-2.5-2.25a.75.75 0 0 1 0-1.114l2.5-2.25a.75.75 0 0 1 1.06.055" clip-rule="evenodd"/></svg>
